X: 31886
T: Peacemaker, The
R: hornpipe
M: 4/4
K: Gmajor
|:D2|G2 A2 cBAG|c2 c2 c2 BA|G2 G2 cBAG|d2 d2 d2 D2|
G2 A2 cBAG|c2 d2 e3 c|d2 g2 fgaf|g2 g2 g2:|
|:z2|d2 g2 gfed|c2 c2 c3 B|A2 a2 agfe|d2 d2 d2 ef|
g2 g2 g2 B2|c2 d2 e3 c|d2 g2 fgaf|g2 g2 g2:|

